X: 801
T: T'Auld Wife of Coverhill
R: Jig
N: used for Ampleforth sword dance
K: Am
M: 9/8
E |: "Am" A^GA c2d edc | "G"BAB G2B BGE | \
  "Am"  A^GA c2e edc | "Em"B2B G2B "Am"A3 :|
 |: "Am"e3 agf edc |  "G" B3 g3  B3 | "Am"e3  \
    agf edc  |  "Em"B2B G2B "Am"A3 :|

